img/icones/diferenciais/preco-icone.svg

<svg width="48" height="48" fill="none" xmlns="http://www.w3.org/2000/svg"><path d="m42.82 23.16-18-18A3.975 3.975 0 0 0 22 4H8C5.8 4 4 5.8 4 8v14c0 1.1.44 2.1 1.18 2.84l18 18C23.9 43.56 24.9 44 26 44c1.1 0 2.1-.44 2.82-1.18l14-14A3.91 3.91 0 0 0 44 26c0-1.1-.46-2.12-1.18-2.84ZM11 14c-1.66 0-3-1.34-3-3s1.34-3 3-3 3 1.34 3 3-1.34 3-3 3Z" fill="url(#a)"/><defs><linearGradient id="a" x1="24" y1="4.8" x2="32.443" y2="41.244" gradientUnits="userSpaceOnUse"><stop stop-color="#345EC2"/><stop offset="1" stop-color="#113896"/></linearGradient></defs></svg>

<svg width="48" height="48" viewBox="0 0 48 48" fill="none" xmlns="http://www.w3.org/2000/svg">
<path d="M42.82 23.16L24.82 5.16C24.1 4.44 23.1 4 22 4H8C5.8 4 4 5.8 4 8V22C4 23.1 4.44 24.1 5.18 24.84L23.18 42.84C23.9 43.56 24.9 44 26 44C27.1 44 28.1 43.56 28.82 42.82L42.82 28.82C43.56 28.1 44 27.1 44 26C44 24.9 43.54 23.88 42.82 23.16ZM11 14C9.34 14 8 12.66 8 11C8 9.34 9.34 8 11 8C12.66 8 14 9.34 14 11C14 12.66 12.66 14 11 14Z" fill="url(#paint0_linear_434_483)"/>
<defs>
<linearGradient id="paint0_linear_434_483" x1="24" y1="4.8" x2="32.4432" y2="41.2439" gradientUnits="userSpaceOnUse">
<stop stop-color="#345EC2"/>
<stop offset="1" stop-color="#113896"/>
</linearGradient>
</defs>
</svg>
